X:40
T:Nelson Hornpipe. JBu.40
T:Liverpool Hp,aka. JBu.40
O:England,South Yorkshire
S:Joshua Burnett’s MS,c1835,S.Yorkshire
M:4/4
L:1/8
Q:1/2=90
R:.hornpipe
N:No time sig in MS
Z:vmp.R.Greig.2011
K:D
AG|FDFA dfaf|gefd dcBA|GBGB FAFA|EFGA GFED|
FDFA dfaf|gefd dcBA|fafd Bgec|d2d2d2:|
|:A2|dfdf cece|Bcdc BAGF|GBGB FAFA|EFGA GFED|
FDFA dfaf|gefd dcBA|fafd Bgec|d2d2d2:|

